dist/svg/window8.svg

<!-- Generated by Trend Micro Style Portal -->
<svg version="1.1" xmlns="http://www.w3.org/2000/svg" width="16" height="16" viewBox="0 0 16 16">
  <title>window8</title>
  <path fill="rgb(34,34,34)" d="M15 7h-8v-5.8l8-1.2v7zM7 8v5.9l8 1.1v-7h-8zM0 12.9l6 0.8v-5.7h-6v4.9zM0 7h6v-5.7l-6 0.8v4.9z"></path>
</svg>

<svg width="16" height="16" viewBox="0 0 16 16" fill="rgb(34, 34, 34)" xmlns="http://www.w3.org/2000/svg"><title>window8</title><path d="M15 7H7V1.2L15 0V7ZM7 8V13.9L15 15V8H7ZM0 12.9L6 13.7V8H0V12.9ZM0 7H6V1.3L0 2.1V7Z" fill="rgb(34, 34, 34)" fill-opacity="1.00"/></svg>
